; Test Cube G-code (Generated by Antigravity)
; Size: 20mm x 20mm x 20mm
M140 S60 ; Set bed temp
M104 S200 ; Set nozzle temp
M190 S60 ; Wait for bed temp
M109 S200 ; Wait for nozzle temp
G28 ; Home all axes
G90 ; Absolute positioning
M82 ; Absolute extrusion mode
G92 E0 ; Reset extrusion
G1 Z2.0 F3000 ; Lift nozzle

; Layer 0 (Z=0.20mm)
G1 Z0.20 F1500
G1 X0 Y0 F3000 ; Move to start
G1 X20 Y0 E1.0000 F1200
G1 X20 Y20 E2.0000
G1 X0 Y20 E3.0000
G1 X0 Y0 E4.0000

; Layer 1 (Z=0.40mm)
G1 Z0.40 F1500
G1 X0 Y0 F3000 ; Move to start
G1 X20 Y0 E5.0000 F1200
G1 X20 Y20 E6.0000
G1 X0 Y20 E7.0000
G1 X0 Y0 E8.0000

; Layer 2 (Z=0.60mm)
G1 Z0.60 F1500
G1 X0 Y0 F3000 ; Move to start
G1 X20 Y0 E9.0000 F1200
G1 X20 Y20 E10.0000
G1 X0 Y20 E11.0000
G1 X0 Y0 E12.0000

; Layer 3 (Z=0.80mm)
G1 Z0.80 F1500
G1 X0 Y0 F3000 ; Move to start
G1 X20 Y0 E13.0000 F1200
G1 X20 Y20 E14.0000
G1 X0 Y20 E15.0000
G1 X0 Y0 E16.0000

; Layer 4 (Z=1.00mm)
G1 Z1.00 F1500
G1 X0 Y0 F3000 ; Move to start
G1 X20 Y0 E17.0000 F1200
G1 X20 Y20 E18.0000
G1 X0 Y20 E19.0000
G1 X0 Y0 E20.0000

; Layer 5 (Z=1.20mm)
G1 Z1.20 F1500
G1 X0 Y0 F3000 ; Move to start
G1 X20 Y0 E21.0000 F1200
G1 X20 Y20 E22.0000
G1 X0 Y20 E23.0000
G1 X0 Y0 E24.0000

; Layer 6 (Z=1.40mm)
G1 Z1.40 F1500
G1 X0 Y0 F3000 ; Move to start
G1 X20 Y0 E25.0000 F1200
G1 X20 Y20 E26.0000
G1 X0 Y20 E27.0000
G1 X0 Y0 E28.0000

; Layer 7 (Z=1.60mm)
G1 Z1.60 F1500
G1 X0 Y0 F3000 ; Move to start
G1 X20 Y0 E29.0000 F1200
G1 X20 Y20 E30.0000
G1 X0 Y20 E31.0000
G1 X0 Y0 E32.0000

; Layer 8 (Z=1.80mm)
G1 Z1.80 F1500
G1 X0 Y0 F3000 ; Move to start
G1 X20 Y0 E33.0000 F1200
G1 X20 Y20 E34.0000
G1 X0 Y20 E35.0000
G1 X0 Y0 E36.0000

; Layer 9 (Z=2.00mm)
G1 Z2.00 F1500
G1 X0 Y0 F3000 ; Move to start
G1 X20 Y0 E37.0000 F1200
G1 X20 Y20 E38.0000
G1 X0 Y20 E39.0000
G1 X0 Y0 E40.0000

; Layer 10 (Z=2.20mm)
G1 Z2.20 F1500
G1 X0 Y0 F3000 ; Move to start
G1 X20 Y0 E41.0000 F1200
G1 X20 Y20 E42.0000
G1 X0 Y20 E43.0000
G1 X0 Y0 E44.0000

; Layer 11 (Z=2.40mm)
G1 Z2.40 F1500
G1 X0 Y0 F3000 ; Move to start
G1 X20 Y0 E45.0000 F1200
G1 X20 Y20 E46.0000
G1 X0 Y20 E47.0000
G1 X0 Y0 E48.0000

; Layer 12 (Z=2.60mm)
G1 Z2.60 F1500
G1 X0 Y0 F3000 ; Move to start
G1 X20 Y0 E49.0000 F1200
G1 X20 Y20 E50.0000
G1 X0 Y20 E51.0000
G1 X0 Y0 E52.0000

; Layer 13 (Z=2.80mm)
G1 Z2.80 F1500
G1 X0 Y0 F3000 ; Move to start
G1 X20 Y0 E53.0000 F1200
G1 X20 Y20 E54.0000
G1 X0 Y20 E55.0000
G1 X0 Y0 E56.0000

; Layer 14 (Z=3.00mm)
G1 Z3.00 F1500
G1 X0 Y0 F3000 ; Move to start
G1 X20 Y0 E57.0000 F1200
G1 X20 Y20 E58.0000
G1 X0 Y20 E59.0000
G1 X0 Y0 E60.0000

; Layer 15 (Z=3.20mm)
G1 Z3.20 F1500
G1 X0 Y0 F3000 ; Move to start
G1 X20 Y0 E61.0000 F1200
G1 X20 Y20 E62.0000
G1 X0 Y20 E63.0000
G1 X0 Y0 E64.0000

; Layer 16 (Z=3.40mm)
G1 Z3.40 F1500
G1 X0 Y0 F3000 ; Move to start
G1 X20 Y0 E65.0000 F1200
G1 X20 Y20 E66.0000
G1 X0 Y20 E67.0000
G1 X0 Y0 E68.0000

; Layer 17 (Z=3.60mm)
G1 Z3.60 F1500
G1 X0 Y0 F3000 ; Move to start
G1 X20 Y0 E69.0000 F1200
G1 X20 Y20 E70.0000
G1 X0 Y20 E71.0000
G1 X0 Y0 E72.0000

; Layer 18 (Z=3.80mm)
G1 Z3.80 F1500
G1 X0 Y0 F3000 ; Move to start
G1 X20 Y0 E73.0000 F1200
G1 X20 Y20 E74.0000
G1 X0 Y20 E75.0000
G1 X0 Y0 E76.0000

; Layer 19 (Z=4.00mm)
G1 Z4.00 F1500
G1 X0 Y0 F3000 ; Move to start
G1 X20 Y0 E77.0000 F1200
G1 X20 Y20 E78.0000
G1 X0 Y20 E79.0000
G1 X0 Y0 E80.0000

; Layer 20 (Z=4.20mm)
G1 Z4.20 F1500
G1 X0 Y0 F3000 ; Move to start
G1 X20 Y0 E81.0000 F1200
G1 X20 Y20 E82.0000
G1 X0 Y20 E83.0000
G1 X0 Y0 E84.0000

; Layer 21 (Z=4.40mm)
G1 Z4.40 F1500
G1 X0 Y0 F3000 ; Move to start
G1 X20 Y0 E85.0000 F1200
G1 X20 Y20 E86.0000
G1 X0 Y20 E87.0000
G1 X0 Y0 E88.0000

; Layer 22 (Z=4.60mm)
G1 Z4.60 F1500
G1 X0 Y0 F3000 ; Move to start
G1 X20 Y0 E89.0000 F1200
G1 X20 Y20 E90.0000
G1 X0 Y20 E91.0000
G1 X0 Y0 E92.0000

; Layer 23 (Z=4.80mm)
G1 Z4.80 F1500
G1 X0 Y0 F3000 ; Move to start
G1 X20 Y0 E93.0000 F1200
G1 X20 Y20 E94.0000
G1 X0 Y20 E95.0000
G1 X0 Y0 E96.0000

; Layer 24 (Z=5.00mm)
G1 Z5.00 F1500
G1 X0 Y0 F3000 ; Move to start
G1 X20 Y0 E97.0000 F1200
G1 X20 Y20 E98.0000
G1 X0 Y20 E99.0000
G1 X0 Y0 E100.0000

; Layer 25 (Z=5.20mm)
G1 Z5.20 F1500
G1 X0 Y0 F3000 ; Move to start
G1 X20 Y0 E101.0000 F1200
G1 X20 Y20 E102.0000
G1 X0 Y20 E103.0000
G1 X0 Y0 E104.0000

; Layer 26 (Z=5.40mm)
G1 Z5.40 F1500
G1 X0 Y0 F3000 ; Move to start
G1 X20 Y0 E105.0000 F1200
G1 X20 Y20 E106.0000
G1 X0 Y20 E107.0000
G1 X0 Y0 E108.0000

; Layer 27 (Z=5.60mm)
G1 Z5.60 F1500
G1 X0 Y0 F3000 ; Move to start
G1 X20 Y0 E109.0000 F1200
G1 X20 Y20 E110.0000
G1 X0 Y20 E111.0000
G1 X0 Y0 E112.0000

; Layer 28 (Z=5.80mm)
G1 Z5.80 F1500
G1 X0 Y0 F3000 ; Move to start
G1 X20 Y0 E113.0000 F1200
G1 X20 Y20 E114.0000
G1 X0 Y20 E115.0000
G1 X0 Y0 E116.0000

; Layer 29 (Z=6.00mm)
G1 Z6.00 F1500
G1 X0 Y0 F3000 ; Move to start
G1 X20 Y0 E117.0000 F1200
G1 X20 Y20 E118.0000
G1 X0 Y20 E119.0000
G1 X0 Y0 E120.0000

; Layer 30 (Z=6.20mm)
G1 Z6.20 F1500
G1 X0 Y0 F3000 ; Move to start
G1 X20 Y0 E121.0000 F1200
G1 X20 Y20 E122.0000
G1 X0 Y20 E123.0000
G1 X0 Y0 E124.0000

; Layer 31 (Z=6.40mm)
G1 Z6.40 F1500
G1 X0 Y0 F3000 ; Move to start
G1 X20 Y0 E125.0000 F1200
G1 X20 Y20 E126.0000
G1 X0 Y20 E127.0000
G1 X0 Y0 E128.0000

; Layer 32 (Z=6.60mm)
G1 Z6.60 F1500
G1 X0 Y0 F3000 ; Move to start
G1 X20 Y0 E129.0000 F1200
G1 X20 Y20 E130.0000
G1 X0 Y20 E131.0000
G1 X0 Y0 E132.0000

; Layer 33 (Z=6.80mm)
G1 Z6.80 F1500
G1 X0 Y0 F3000 ; Move to start
G1 X20 Y0 E133.0000 F1200
G1 X20 Y20 E134.0000
G1 X0 Y20 E135.0000
G1 X0 Y0 E136.0000

; Layer 34 (Z=7.00mm)
G1 Z7.00 F1500
G1 X0 Y0 F3000 ; Move to start
G1 X20 Y0 E137.0000 F1200
G1 X20 Y20 E138.0000
G1 X0 Y20 E139.0000
G1 X0 Y0 E140.0000

; Layer 35 (Z=7.20mm)
G1 Z7.20 F1500
G1 X0 Y0 F3000 ; Move to start
G1 X20 Y0 E141.0000 F1200
G1 X20 Y20 E142.0000
G1 X0 Y20 E143.0000
G1 X0 Y0 E144.0000

; Layer 36 (Z=7.40mm)
G1 Z7.40 F1500
G1 X0 Y0 F3000 ; Move to start
G1 X20 Y0 E145.0000 F1200
G1 X20 Y20 E146.0000
G1 X0 Y20 E147.0000
G1 X0 Y0 E148.0000

; Layer 37 (Z=7.60mm)
G1 Z7.60 F1500
G1 X0 Y0 F3000 ; Move to start
G1 X20 Y0 E149.0000 F1200
G1 X20 Y20 E150.0000
G1 X0 Y20 E151.0000
G1 X0 Y0 E152.0000

; Layer 38 (Z=7.80mm)
G1 Z7.80 F1500
G1 X0 Y0 F3000 ; Move to start
G1 X20 Y0 E153.0000 F1200
G1 X20 Y20 E154.0000
G1 X0 Y20 E155.0000
G1 X0 Y0 E156.0000

; Layer 39 (Z=8.00mm)
G1 Z8.00 F1500
G1 X0 Y0 F3000 ; Move to start
G1 X20 Y0 E157.0000 F1200
G1 X20 Y20 E158.0000
G1 X0 Y20 E159.0000
G1 X0 Y0 E160.0000

; Layer 40 (Z=8.20mm)
G1 Z8.20 F1500
G1 X0 Y0 F3000 ; Move to start
G1 X20 Y0 E161.0000 F1200
G1 X20 Y20 E162.0000
G1 X0 Y20 E163.0000
G1 X0 Y0 E164.0000

; Layer 41 (Z=8.40mm)
G1 Z8.40 F1500
G1 X0 Y0 F3000 ; Move to start
G1 X20 Y0 E165.0000 F1200
G1 X20 Y20 E166.0000
G1 X0 Y20 E167.0000
G1 X0 Y0 E168.0000

; Layer 42 (Z=8.60mm)
G1 Z8.60 F1500
G1 X0 Y0 F3000 ; Move to start
G1 X20 Y0 E169.0000 F1200
G1 X20 Y20 E170.0000
G1 X0 Y20 E171.0000
G1 X0 Y0 E172.0000

; Layer 43 (Z=8.80mm)
G1 Z8.80 F1500
G1 X0 Y0 F3000 ; Move to start
G1 X20 Y0 E173.0000 F1200
G1 X20 Y20 E174.0000
G1 X0 Y20 E175.0000
G1 X0 Y0 E176.0000

; Layer 44 (Z=9.00mm)
G1 Z9.00 F1500
G1 X0 Y0 F3000 ; Move to start
G1 X20 Y0 E177.0000 F1200
G1 X20 Y20 E178.0000
G1 X0 Y20 E179.0000
G1 X0 Y0 E180.0000

; Layer 45 (Z=9.20mm)
G1 Z9.20 F1500
G1 X0 Y0 F3000 ; Move to start
G1 X20 Y0 E181.0000 F1200
G1 X20 Y20 E182.0000
G1 X0 Y20 E183.0000
G1 X0 Y0 E184.0000

; Layer 46 (Z=9.40mm)
G1 Z9.40 F1500
G1 X0 Y0 F3000 ; Move to start
G1 X20 Y0 E185.0000 F1200
G1 X20 Y20 E186.0000
G1 X0 Y20 E187.0000
G1 X0 Y0 E188.0000

; Layer 47 (Z=9.60mm)
G1 Z9.60 F1500
G1 X0 Y0 F3000 ; Move to start
G1 X20 Y0 E189.0000 F1200
G1 X20 Y20 E190.0000
G1 X0 Y20 E191.0000
G1 X0 Y0 E192.0000

; Layer 48 (Z=9.80mm)
G1 Z9.80 F1500
G1 X0 Y0 F3000 ; Move to start
G1 X20 Y0 E193.0000 F1200
G1 X20 Y20 E194.0000
G1 X0 Y20 E195.0000
G1 X0 Y0 E196.0000

; Layer 49 (Z=10.00mm)
G1 Z10.00 F1500
G1 X0 Y0 F3000 ; Move to start
G1 X20 Y0 E197.0000 F1200
G1 X20 Y20 E198.0000
G1 X0 Y20 E199.0000
G1 X0 Y0 E200.0000

; Layer 50 (Z=10.20mm)
G1 Z10.20 F1500
G1 X0 Y0 F3000 ; Move to start
G1 X20 Y0 E201.0000 F1200
G1 X20 Y20 E202.0000
G1 X0 Y20 E203.0000
G1 X0 Y0 E204.0000

; Layer 51 (Z=10.40mm)
G1 Z10.40 F1500
G1 X0 Y0 F3000 ; Move to start
G1 X20 Y0 E205.0000 F1200
G1 X20 Y20 E206.0000
G1 X0 Y20 E207.0000
G1 X0 Y0 E208.0000

; Layer 52 (Z=10.60mm)
G1 Z10.60 F1500
G1 X0 Y0 F3000 ; Move to start
G1 X20 Y0 E209.0000 F1200
G1 X20 Y20 E210.0000
G1 X0 Y20 E211.0000
G1 X0 Y0 E212.0000

; Layer 53 (Z=10.80mm)
G1 Z10.80 F1500
G1 X0 Y0 F3000 ; Move to start
G1 X20 Y0 E213.0000 F1200
G1 X20 Y20 E214.0000
G1 X0 Y20 E215.0000
G1 X0 Y0 E216.0000

; Layer 54 (Z=11.00mm)
G1 Z11.00 F1500
G1 X0 Y0 F3000 ; Move to start
G1 X20 Y0 E217.0000 F1200
G1 X20 Y20 E218.0000
G1 X0 Y20 E219.0000
G1 X0 Y0 E220.0000

; Layer 55 (Z=11.20mm)
G1 Z11.20 F1500
G1 X0 Y0 F3000 ; Move to start
G1 X20 Y0 E221.0000 F1200
G1 X20 Y20 E222.0000
G1 X0 Y20 E223.0000
G1 X0 Y0 E224.0000

; Layer 56 (Z=11.40mm)
G1 Z11.40 F1500
G1 X0 Y0 F3000 ; Move to start
G1 X20 Y0 E225.0000 F1200
G1 X20 Y20 E226.0000
G1 X0 Y20 E227.0000
G1 X0 Y0 E228.0000

; Layer 57 (Z=11.60mm)
G1 Z11.60 F1500
G1 X0 Y0 F3000 ; Move to start
G1 X20 Y0 E229.0000 F1200
G1 X20 Y20 E230.0000
G1 X0 Y20 E231.0000
G1 X0 Y0 E232.0000

; Layer 58 (Z=11.80mm)
G1 Z11.80 F1500
G1 X0 Y0 F3000 ; Move to start
G1 X20 Y0 E233.0000 F1200
G1 X20 Y20 E234.0000
G1 X0 Y20 E235.0000
G1 X0 Y0 E236.0000

; Layer 59 (Z=12.00mm)
G1 Z12.00 F1500
G1 X0 Y0 F3000 ; Move to start
G1 X20 Y0 E237.0000 F1200
G1 X20 Y20 E238.0000
G1 X0 Y20 E239.0000
G1 X0 Y0 E240.0000

; Layer 60 (Z=12.20mm)
G1 Z12.20 F1500
G1 X0 Y0 F3000 ; Move to start
G1 X20 Y0 E241.0000 F1200
G1 X20 Y20 E242.0000
G1 X0 Y20 E243.0000
G1 X0 Y0 E244.0000

; Layer 61 (Z=12.40mm)
G1 Z12.40 F1500
G1 X0 Y0 F3000 ; Move to start
G1 X20 Y0 E245.0000 F1200
G1 X20 Y20 E246.0000
G1 X0 Y20 E247.0000
G1 X0 Y0 E248.0000

; Layer 62 (Z=12.60mm)
G1 Z12.60 F1500
G1 X0 Y0 F3000 ; Move to start
G1 X20 Y0 E249.0000 F1200
G1 X20 Y20 E250.0000
G1 X0 Y20 E251.0000
G1 X0 Y0 E252.0000

; Layer 63 (Z=12.80mm)
G1 Z12.80 F1500
G1 X0 Y0 F3000 ; Move to start
G1 X20 Y0 E253.0000 F1200
G1 X20 Y20 E254.0000
G1 X0 Y20 E255.0000
G1 X0 Y0 E256.0000

; Layer 64 (Z=13.00mm)
G1 Z13.00 F1500
G1 X0 Y0 F3000 ; Move to start
G1 X20 Y0 E257.0000 F1200
G1 X20 Y20 E258.0000
G1 X0 Y20 E259.0000
G1 X0 Y0 E260.0000

; Layer 65 (Z=13.20mm)
G1 Z13.20 F1500
G1 X0 Y0 F3000 ; Move to start
G1 X20 Y0 E261.0000 F1200
G1 X20 Y20 E262.0000
G1 X0 Y20 E263.0000
G1 X0 Y0 E264.0000

; Layer 66 (Z=13.40mm)
G1 Z13.40 F1500
G1 X0 Y0 F3000 ; Move to start
G1 X20 Y0 E265.0000 F1200
G1 X20 Y20 E266.0000
G1 X0 Y20 E267.0000
G1 X0 Y0 E268.0000

; Layer 67 (Z=13.60mm)
G1 Z13.60 F1500
G1 X0 Y0 F3000 ; Move to start
G1 X20 Y0 E269.0000 F1200
G1 X20 Y20 E270.0000
G1 X0 Y20 E271.0000
G1 X0 Y0 E272.0000

; Layer 68 (Z=13.80mm)
G1 Z13.80 F1500
G1 X0 Y0 F3000 ; Move to start
G1 X20 Y0 E273.0000 F1200
G1 X20 Y20 E274.0000
G1 X0 Y20 E275.0000
G1 X0 Y0 E276.0000

; Layer 69 (Z=14.00mm)
G1 Z14.00 F1500
G1 X0 Y0 F3000 ; Move to start
G1 X20 Y0 E277.0000 F1200
G1 X20 Y20 E278.0000
G1 X0 Y20 E279.0000
G1 X0 Y0 E280.0000

; Layer 70 (Z=14.20mm)
G1 Z14.20 F1500
G1 X0 Y0 F3000 ; Move to start
G1 X20 Y0 E281.0000 F1200
G1 X20 Y20 E282.0000
G1 X0 Y20 E283.0000
G1 X0 Y0 E284.0000

; Layer 71 (Z=14.40mm)
G1 Z14.40 F1500
G1 X0 Y0 F3000 ; Move to start
G1 X20 Y0 E285.0000 F1200
G1 X20 Y20 E286.0000
G1 X0 Y20 E287.0000
G1 X0 Y0 E288.0000

; Layer 72 (Z=14.60mm)
G1 Z14.60 F1500
G1 X0 Y0 F3000 ; Move to start
G1 X20 Y0 E289.0000 F1200
G1 X20 Y20 E290.0000
G1 X0 Y20 E291.0000
G1 X0 Y0 E292.0000

; Layer 73 (Z=14.80mm)
G1 Z14.80 F1500
G1 X0 Y0 F3000 ; Move to start
G1 X20 Y0 E293.0000 F1200
G1 X20 Y20 E294.0000
G1 X0 Y20 E295.0000
G1 X0 Y0 E296.0000

; Layer 74 (Z=15.00mm)
G1 Z15.00 F1500
G1 X0 Y0 F3000 ; Move to start
G1 X20 Y0 E297.0000 F1200
G1 X20 Y20 E298.0000
G1 X0 Y20 E299.0000
G1 X0 Y0 E300.0000

; Layer 75 (Z=15.20mm)
G1 Z15.20 F1500
G1 X0 Y0 F3000 ; Move to start
G1 X20 Y0 E301.0000 F1200
G1 X20 Y20 E302.0000
G1 X0 Y20 E303.0000
G1 X0 Y0 E304.0000

; Layer 76 (Z=15.40mm)
G1 Z15.40 F1500
G1 X0 Y0 F3000 ; Move to start
G1 X20 Y0 E305.0000 F1200
G1 X20 Y20 E306.0000
G1 X0 Y20 E307.0000
G1 X0 Y0 E308.0000

; Layer 77 (Z=15.60mm)
G1 Z15.60 F1500
G1 X0 Y0 F3000 ; Move to start
G1 X20 Y0 E309.0000 F1200
G1 X20 Y20 E310.0000
G1 X0 Y20 E311.0000
G1 X0 Y0 E312.0000

; Layer 78 (Z=15.80mm)
G1 Z15.80 F1500
G1 X0 Y0 F3000 ; Move to start
G1 X20 Y0 E313.0000 F1200
G1 X20 Y20 E314.0000
G1 X0 Y20 E315.0000
G1 X0 Y0 E316.0000

; Layer 79 (Z=16.00mm)
G1 Z16.00 F1500
G1 X0 Y0 F3000 ; Move to start
G1 X20 Y0 E317.0000 F1200
G1 X20 Y20 E318.0000
G1 X0 Y20 E319.0000
G1 X0 Y0 E320.0000

; Layer 80 (Z=16.20mm)
G1 Z16.20 F1500
G1 X0 Y0 F3000 ; Move to start
G1 X20 Y0 E321.0000 F1200
G1 X20 Y20 E322.0000
G1 X0 Y20 E323.0000
G1 X0 Y0 E324.0000

; Layer 81 (Z=16.40mm)
G1 Z16.40 F1500
G1 X0 Y0 F3000 ; Move to start
G1 X20 Y0 E325.0000 F1200
G1 X20 Y20 E326.0000
G1 X0 Y20 E327.0000
G1 X0 Y0 E328.0000

; Layer 82 (Z=16.60mm)
G1 Z16.60 F1500
G1 X0 Y0 F3000 ; Move to start
G1 X20 Y0 E329.0000 F1200
G1 X20 Y20 E330.0000
G1 X0 Y20 E331.0000
G1 X0 Y0 E332.0000

; Layer 83 (Z=16.80mm)
G1 Z16.80 F1500
G1 X0 Y0 F3000 ; Move to start
G1 X20 Y0 E333.0000 F1200
G1 X20 Y20 E334.0000
G1 X0 Y20 E335.0000
G1 X0 Y0 E336.0000

; Layer 84 (Z=17.00mm)
G1 Z17.00 F1500
G1 X0 Y0 F3000 ; Move to start
G1 X20 Y0 E337.0000 F1200
G1 X20 Y20 E338.0000
G1 X0 Y20 E339.0000
G1 X0 Y0 E340.0000

; Layer 85 (Z=17.20mm)
G1 Z17.20 F1500
G1 X0 Y0 F3000 ; Move to start
G1 X20 Y0 E341.0000 F1200
G1 X20 Y20 E342.0000
G1 X0 Y20 E343.0000
G1 X0 Y0 E344.0000

; Layer 86 (Z=17.40mm)
G1 Z17.40 F1500
G1 X0 Y0 F3000 ; Move to start
G1 X20 Y0 E345.0000 F1200
G1 X20 Y20 E346.0000
G1 X0 Y20 E347.0000
G1 X0 Y0 E348.0000

; Layer 87 (Z=17.60mm)
G1 Z17.60 F1500
G1 X0 Y0 F3000 ; Move to start
G1 X20 Y0 E349.0000 F1200
G1 X20 Y20 E350.0000
G1 X0 Y20 E351.0000
G1 X0 Y0 E352.0000

; Layer 88 (Z=17.80mm)
G1 Z17.80 F1500
G1 X0 Y0 F3000 ; Move to start
G1 X20 Y0 E353.0000 F1200
G1 X20 Y20 E354.0000
G1 X0 Y20 E355.0000
G1 X0 Y0 E356.0000

; Layer 89 (Z=18.00mm)
G1 Z18.00 F1500
G1 X0 Y0 F3000 ; Move to start
G1 X20 Y0 E357.0000 F1200
G1 X20 Y20 E358.0000
G1 X0 Y20 E359.0000
G1 X0 Y0 E360.0000

; Layer 90 (Z=18.20mm)
G1 Z18.20 F1500
G1 X0 Y0 F3000 ; Move to start
G1 X20 Y0 E361.0000 F1200
G1 X20 Y20 E362.0000
G1 X0 Y20 E363.0000
G1 X0 Y0 E364.0000

; Layer 91 (Z=18.40mm)
G1 Z18.40 F1500
G1 X0 Y0 F3000 ; Move to start
G1 X20 Y0 E365.0000 F1200
G1 X20 Y20 E366.0000
G1 X0 Y20 E367.0000
G1 X0 Y0 E368.0000

; Layer 92 (Z=18.60mm)
G1 Z18.60 F1500
G1 X0 Y0 F3000 ; Move to start
G1 X20 Y0 E369.0000 F1200
G1 X20 Y20 E370.0000
G1 X0 Y20 E371.0000
G1 X0 Y0 E372.0000

; Layer 93 (Z=18.80mm)
G1 Z18.80 F1500
G1 X0 Y0 F3000 ; Move to start
G1 X20 Y0 E373.0000 F1200
G1 X20 Y20 E374.0000
G1 X0 Y20 E375.0000
G1 X0 Y0 E376.0000

; Layer 94 (Z=19.00mm)
G1 Z19.00 F1500
G1 X0 Y0 F3000 ; Move to start
G1 X20 Y0 E377.0000 F1200
G1 X20 Y20 E378.0000
G1 X0 Y20 E379.0000
G1 X0 Y0 E380.0000

; Layer 95 (Z=19.20mm)
G1 Z19.20 F1500
G1 X0 Y0 F3000 ; Move to start
G1 X20 Y0 E381.0000 F1200
G1 X20 Y20 E382.0000
G1 X0 Y20 E383.0000
G1 X0 Y0 E384.0000

; Layer 96 (Z=19.40mm)
G1 Z19.40 F1500
G1 X0 Y0 F3000 ; Move to start
G1 X20 Y0 E385.0000 F1200
G1 X20 Y20 E386.0000
G1 X0 Y20 E387.0000
G1 X0 Y0 E388.0000

; Layer 97 (Z=19.60mm)
G1 Z19.60 F1500
G1 X0 Y0 F3000 ; Move to start
G1 X20 Y0 E389.0000 F1200
G1 X20 Y20 E390.0000
G1 X0 Y20 E391.0000
G1 X0 Y0 E392.0000

; Layer 98 (Z=19.80mm)
G1 Z19.80 F1500
G1 X0 Y0 F3000 ; Move to start
G1 X20 Y0 E393.0000 F1200
G1 X20 Y20 E394.0000
G1 X0 Y20 E395.0000
G1 X0 Y0 E396.0000

; Layer 99 (Z=20.00mm)
G1 Z20.00 F1500
G1 X0 Y0 F3000 ; Move to start
G1 X20 Y0 E397.0000 F1200
G1 X20 Y20 E398.0000
G1 X0 Y20 E399.0000
G1 X0 Y0 E400.0000

; End of print
M104 S0 ; Turn off nozzle
M140 S0 ; Turn off bed
G28 X0 ; Home X axis
M84 ; Disable motors
